;FLAVOR:Marlin
;TIME:3470
;Filament used: 2.09321m
;Layer height: 0.2
;MINX:112.521
;MINY:119.564
;MINZ:0.2
;MAXX:187.336
;MAXY:180.507
;MAXZ:16.4
;Generated with Cura_SteamEngine main
M140 S60
M105
M190 S60
M104 S200
M105
M109 S200
M82 ;absolute extrusion mode
; Ender 3 Max Custom Start G-code
G92 E0 ; Reset Extruder
G28 ; Home all axes
G1 Z2.0 F3000 ; Move Z Axis up little to prevent scratching of Heat Bed
G1 X0.1 Y20 Z0.3 F5000.0 ; Move to start position
G1 X0.1 Y200.0 Z0.3 F1500.0 E15 ; Draw the first line
G1 X0.4 Y200.0 Z0.3 F5000.0 ; Move to side a little
G1 X0.4 Y20 Z0.3 F1500.0 E30 ; Draw the second line
G92 E0 ; Reset Extruder
G1 Z2.0 F3000 ; Move Z Axis up little to prevent scratching of Heat Bed
G1 X5 Y20 Z0.3 F5000.0 ; Move over to prevent blob squish
G92 E0
G92 E0
G1 F1500 E-6.5
;LAYER_COUNT:83
;LAYER:0
M107
;MESH:grippy_left_hand.stl
G0 F6000 X173.779 Y148.463 Z0.2
;TYPE:WALL-INNER
G1 F1500 E0
G1 F1200 X174.016 Y148.348 E0.00876
G1 X174.365 Y148.146 E0.02217
G1 X174.665 Y147.937 E0.03433
G1 X174.906 Y147.742 E0.04465
G1 X175.102 Y147.558 E0.05359
G1 X175.387 Y147.242 E0.06774
G1 X175.428 Y146.996 E0.07603
G1 X175.545 Y146.573 E0.09063
G1 X175.731 Y146.143 E0.10621
G1 X176.039 Y145.679 E0.12474
G1 X176.542 Y145.308 E0.14553
G1 X177.062 Y145.124 E0.16387
G1 X177.484 Y145.094 E0.17794
G1 X177.984 Y145.189 E0.19487
G1 X178.352 Y145.327 E0.20794
G1 X178.757 Y145.619 E0.22455
G1 X179.059 Y146.029 E0.24149
G1 X179.239 Y146.458 E0.25696
G1 X179.323 Y146.87 E0.27095
G1 X179.34 Y147.206 E0.28213
G1 X179.3 Y147.707 E0.29885
G1 X179.261 Y147.911 E0.30576
G1 X179.402 Y148.28 E0.3189
G1 X179.523 Y148.528 E0.32808
G1 X179.663 Y148.771 E0.3374
G1 X179.851 Y149.047 E0.34851
G1 X180.092 Y149.348 E0.36133
G1 X180.337 Y149.614 E0.37336
G1 X180.845 Y149.524 E0.39052
G1 X181.061 Y148.92 E0.41186
G1 X181.156 Y148.569 E0.42395
G1 X181.217 Y148.256 E0.43456
G1 X181.246 Y147.999 E0.44316
G1 X181.262 Y147.567 E0.45754
G1 X181.06 Y147.236 E0.47044
G1 X180.861 Y146.678 E0.49014
G1 X180.79 Y146.296 E0.50306
G1 X180.777 Y145.938 E0.51498
G1 X180.908 Y145.337 E0.53544
G1 X181.193 Y144.855 E0.55406
G1 X181.506 Y144.575 E0.56803
G1 X181.951 Y144.318 E0.58512
G1 F1156.6 X182.415 Y144.18 E0.60182
G1 F1098.4 X182.734 Y144.171 E0.61342
G1 F1061.9 X183.053 Y144.162 E0.62541
G1 F1088.4 X182.839 Y144.004 E0.63517
G1 F1167.9 X182.603 Y143.855 E0.64471
G1 F1200 X180.179 Y142.45 E0.73789
G1 X180.086 Y142.361 E0.74218
G1 X179.964 Y142.126 E0.75098
G1 X179.95 Y141.892 E0.75878
G1 X180 Y141.72 E0.76474
G1 X180.261 Y141.263 E0.78224
G1 F1086 X180.458 Y140.839 E0.79942
G1 F1036.7 X180.227 Y141.002 E0.81031
G1 F1140.1 X179.996 Y141.165 E0.8202
G1 F1200 X179.71 Y141.329 E0.83117
G1 X179.339 Y141.466 E0.84432
G1 X178.962 Y141.529 E0.85704
G1 X178.593 Y141.529 E0.86931
G1 X178.207 Y141.464 E0.88233
G1 X177.841 Y141.328 E0.89532
G1 X177.49 Y141.119 E0.9089
G1 X177.151 Y140.835 E0.92361
G1 X176.806 Y140.34 E0.94368
G1 X176.648 Y139.905 E0.95907
G1 X176.585 Y139.525 E0.97188
G1 X176.583 Y139.141 E0.98466
G1 F1173.6 X176.658 Y138.715 E0.99937
G1 F1088.4 X176.734 Y138.44 E1.00983
G1 F1111.1 X176.505 Y138.771 E1.02429
G1 F1200 X176.102 Y139.467 E1.05104
G1 X175.889 Y139.655 E1.06049
G1 X175.647 Y139.723 E1.06885
G1 X175.366 Y139.673 E1.07834
G1 X172.451 Y137.993 E1.19024
G1 X172.155 Y137.546 E1.20807
G1 X172.231 Y137.173 E1.22073
G1 X173.631 Y134.748 E1.31387
G1 X173.786 Y134.57 E1.32172
G1 X174.079 Y134.452 E1.33222
G1 X174.38 Y134.487 E1.3423
G1 X177.31 Y136.178 E1.45482
G1 X177.603 Y136.603 E1.47199
G1 X177.58 Y136.909 E1.48219
G1 X177.152 Y137.653 E1.51074
G1 F1111.1 X176.98 Y138.015 E1.52514
G1 F1088.4 X177.177 Y137.813 E1.53549
G1 F1162.2 X177.38 Y137.642 E1.5446
G1 F1188.1 X177.583 Y137.471 E1.55352
G1 F1200 X178.113 Y137.224 E1.57296
G1 X178.583 Y137.142 E1.58883
G1 X178.915 Y137.142 E1.59988
G1 F1071.4 X179.372 Y137.164 E1.61692
G1 F898.9 X179.498 Y137.157 E1.62252
G1 F843.6 X180.02 Y137.417 E1.65011
G1 F836.2 X180.353 Y137.673 E1.67016
G1 F887.2 X180.408 Y137.788 E1.67589
G1 F1010.5 X180.542 Y138.001 E1.68583
G1 F1129.4 X180.676 Y138.215 E1.69476
G1 F1200 X180.845 Y138.58 E1.70813
G1 X180.948 Y138.953 E1.72101
G1 X180.979 Y139.334 E1.73372
G1 X180.951 Y139.667 E1.74483
G1 F1145.6 X180.871 Y140.134 E1.76134
G1 F1142.9 X181.084 Y139.836 E1.77413
G1 F1194 X181.46 Y139.186 E1.79923
G1 F1200 X181.732 Y138.986 E1.81046
G1 X182.17 Y138.984 E1.82503
G1 X184.687 Y140.438 E1.92171
G1 X184.685 Y139.975 E1.93711
G1 X184.574 Y139.625 E1.94932
G1 X184.421 Y139.365 E1.95936
G1 X184.204 Y139.148 E1.96956
G1 X183.969 Y138.985 E1.97908
G1 X181.19 Y137.381 E2.0858
G1 F1066.7 X180.863 Y137.249 E2.09899
G1 F887.2 X180.686 Y137.196 E2.1073
G1 F836.2 X180.469 Y137.06 E2.11953
G1 F863.3 X180.252 Y136.923 E2.13139
G1 F866.4 X179.996 Y136.782 E2.14485
G1 F848.1 X179.739 Y136.641 E2.15865
G1 F898.9 X179.605 Y136.52 E2.16667
G1 F1071.4 X179.325 Y136.304 E2.17984
G1 F1200 X155.308 Y122.438 E3.10222
G1 X153.936 Y121.724 E3.15366
G1 X153.755 Y121.457 E3.16439
G1 X153.717 Y121.245 E3.17156
G1 X153.717 Y119.964 E3.21416
G1 X119.363 Y119.964 E4.35678
G1 X119.363 Y127.376 E4.60331
G1 X153.102 Y127.376 E5.72547
G1 X153.315 Y127.404 E5.73261
G1 X169.602 Y136.809 E6.35815
G1 X170.052 Y137.159 E6.37711
G1 X170.398 Y137.343 E6.39015
G1 X170.712 Y137.45 E6.40118
G1 F1197 X171.689 Y138.017 E6.43885
G1 F1191.1 X172.667 Y138.585 E6.47674
G1 F1194 X172.879 Y139.054 E6.49395
G1 F1200 X172.874 Y139.671 E6.51447
G1 X172.649 Y140.349 E6.53823
G1 X172.216 Y140.793 E6.55886
G1 X171.69 Y141.098 E6.57908
G1 X171.28 Y141.226 E6.59337
G1 X170.891 Y141.288 E6.60647
G1 X170.415 Y141.298 E6.6223
G1 X170.077 Y141.504 E6.63547
G1 X169.857 Y141.664 E6.64452
G1 X169.64 Y141.847 E6.65396
G1 X169.4 Y142.083 E6.66515
G1 X169.145 Y142.371 E6.67795
G1 X168.926 Y142.659 E6.68998
G1 X169.08 Y143.115 E6.70599
G1 X169.322 Y143.178 E6.71431
G1 X169.735 Y143.249 E6.72824
G1 X170.098 Y143.283 E6.74037
G1 X170.409 Y143.288 E6.75072
G1 X170.673 Y143.272 E6.75951
G1 X171.102 Y143.211 E6.77393
G1 X171.41 Y142.946 E6.78744
G1 X171.879 Y142.676 E6.80544
G1 X172.258 Y142.527 E6.81898
G1 X172.766 Y142.439 E6.83613
G1 X173.247 Y142.479 E6.85218
G1 X173.758 Y142.676 E6.8704
G1 X174.089 Y142.933 E6.88434
G1 X174.402 Y143.303 E6.90046
G1 X174.607 Y143.666 E6.91432
G1 X174.717 Y144.176 E6.93167
G1 X174.69 Y144.66 E6.9478
G1 X174.483 Y145.239 E6.96825
G1 X174.274 Y145.572 E6.98133
G1 X173.964 Y145.932 E6.99713
G1 X173.634 Y146.215 E7.01159
G1 X173.507 Y146.591 E7.02479
G1 X173.438 Y146.858 E7.03396
G1 X173.391 Y147.133 E7.04324
G1 X173.358 Y147.468 E7.05443
G1 X173.349 Y147.869 E7.06777
G1 X173.367 Y148.212 E7.0792
G1 X173.779 Y148.463 E7.09524
G1 F1500 E0.59524
G0 F6000 X173.709 Y148.298
G0 X174.627 Y147.762
G0 X175.195 Y147.202
G0 X176.674 Y145.088
G0 X178.949 Y145.603
G0 X179.537 Y148.184
G0 X180.046 Y149.033
G0 X180.399 Y149.438
G0 X180.708 Y149.384
G0 X181.014 Y148.458
G0 X181.09 Y147.663
G0 X180.814 Y145.179
G0 X182.474 Y143.995
G0 X179.784 Y142.002
G0 X179.96 Y141.406
G0 X178.079 Y141.524
G1 F1500 E7.09524
G0 F6000 X178.624 Y141.13
;TYPE:WALL-OUTER
G1 F1200 X178.328 Y141.078 E7.10524
G1 X178.03 Y140.974 E7.11574
G1 X177.731 Y140.8 E7.12724
G1 X177.44 Y140.553 E7.13994
G1 X177.175 Y140.173 E7.15535
G1 X177.042 Y139.818 E7.16796
G1 X176.983 Y139.491 E7.17901
G1 X176.985 Y139.163 E7.18992
G1 X177.033 Y138.888 E7.1992
G1 X177.154 Y138.556 E7.21095
G1 X177.293 Y138.318 E7.22012
G1 X177.492 Y138.075 E7.23057
G1 X177.804 Y137.809 E7.24421
G1 X178.234 Y137.608 E7.25999
G1 X178.605 Y137.544 E7.27251
G1 X178.95 Y137.544 E7.28399
G1 X179.326 Y137.61 E7.29669
G1 X179.741 Y137.806 E7.31195
G1 X180.038 Y138.05 E7.32474
G1 X180.304 Y138.364 E7.33842
G1 X180.469 Y138.717 E7.35138
G1 X180.547 Y139.003 E7.36124
G1 X180.577 Y139.316 E7.3717
G1 X180.547 Y139.669 E7.38348
G1 X180.463 Y139.966 E7.39375
G1 X180.34 Y140.236 E7.40362
G1 X180.116 Y140.554 E7.41655
G1 X179.822 Y140.801 E7.42933
G1 X179.556 Y140.959 E7.43962
G1 X179.227 Y141.079 E7.45126
G1 X178.931 Y141.13 E7.46125
G1 X178.624 Y141.13 E7.47147
G0 F6000 X178.079 Y141.524
G0 X179.96 Y141.406
G0 X180.458 Y140.839
;TYPE:WALL-INNER
G1 F1034.5 X180.707 Y140.447 E7.48938
G1 F1043.5 X180.861 Y140.148 E7.50225
G1 F1500 E1.00225
G0 F6000 X181.313 Y139.804
G0 X182.184 Y140.439
G0 X183.912 Y141.437
G0 X184.663 Y141.741
;TYPE:WALL-OUTER
G1 F1500 E7.50225
G1 F1832.1 X184.84 Y141.36 E7.5114
G1 F2162.2 X184.899 Y141.253 E7.51365
G0 F6000 X184.779 Y140.649
G0 X181.789 Y138.964
G0 X179.961 Y142.129
G0 X183.559 Y144.207
G0 X184.603 Y142.896
G0 X186.125 Y144.506
G0 X186.546 Y145.291
G0 X186.715 Y145.79
G0 X186.532 Y146.006
G0 X185.562 Y145.904
G0 X185.519 Y145.993
;TYPE:WALL-INNER
G1 F1200 X185.846 Y146.084 E7.52494
G1 X186.22 Y146.161 E7.53764
G1 X186.578 Y146.205 E7.54964
G1 X186.899 Y145.84 E7.56581
G1 X186.838 Y145.621 E7.57337
G1 X186.688 Y145.211 E7.58789
G1 X186.535 Y144.878 E7.60008
G1 X186.381 Y144.602 E7.61059
G1 X186.238 Y144.386 E7.61921
G1 X185.968 Y144.044 E7.6337
G1 X185.597 Y143.917 E7.64674
G1 X185.099 Y143.624 E7.66596
G1 X184.793 Y143.379 E7.679
G1 X184.467 Y142.983 E7.69606
G1 X183.882 Y143.987 E7.73471
G1 F1170.7 X183.642 Y144.186 E7.74533
G1 F1061.9 X183.392 Y144.265 E7.75519
G1 X183.613 Y144.405 E7.76502
G1 F1156.6 X183.827 Y144.583 E7.77463
G1 F1185.2 X184.041 Y144.762 E7.78402
G1 F1200 X184.3 Y145.036 E7.79656
G1 X184.586 Y145.456 E7.81346
G1 X184.659 Y145.593 E7.81862
G1 X185.006 Y145.787 E7.83185
G1 X185.253 Y145.896 E7.84083
G1 X185.519 Y145.993 E7.85024
G0 F6000 X185.562 Y145.904
G0 X184.765 Y145.449
G0 X179.961 Y142.129
G0 X180.323 Y141.475
G0 X179.305 Y141.307
G0 X178.6 Y141.369
G0 X177.915 Y141.186
G0 X177.267 Y140.723
G0 X176.957 Y140.281
G0 X176.414 Y139.724
G0 X176.734 Y138.44
G1 F1043.5 X176.783 Y138.342 E7.85443
G1 X176.98 Y138.015 E7.86904
G1 F1500 E1.36904
G0 F6000 X175.987 Y139.466
G1 F1500 E7.86904
G0 F6000 X175.703 Y139.301
;TYPE:WALL-OUTER
G1 F1200 X175.565 Y139.328 E7.87371
G1 X172.651 Y137.647 E7.9856
G1 X172.552 Y137.498 E7.99155
G1 X172.577 Y137.373 E7.99579
G1 X174.006 Y134.897 E8.09088
G1 X174.127 Y134.849 E8.09521
G1 X174.22 Y134.86 E8.09832
G1 X177.11 Y136.524 E8.20924
G1 X177.207 Y136.666 E8.21496
G1 X177.202 Y136.755 E8.21792
G1 X175.774 Y139.238 E8.31319
G1 X175.703 Y139.301 E8.31635
G1 F1500 E1.81635
G0 F6000 X175.987 Y139.466
G0 X175.541 Y139.882
G0 X172.771 Y138.4
G0 X172.677 Y140.551
G0 X170.167 Y141.638
G0 X169.45 Y142.269
G0 X169.11 Y142.69
G0 X169.217 Y142.981
G0 X170.186 Y143.123
G0 X170.971 Y143.059
G0 X173.376 Y142.356
G0 X174.843 Y143.897
G0 X173.648 Y146.691
G0 X173.516 Y147.578
G0 X173.526 Y148.062
G0 X173.709 Y148.298
G1 F1500 E8.31635
G0 F6000 X173.78 Y148.907
G1 F1200 X174.19 Y148.709 E8.33149
G1 X174.58 Y148.484 E8.34647
G1 X174.905 Y148.257 E8.35965
G1 X175.17 Y148.044 E8.37096
G1 X175.388 Y147.838 E8.38094
G1 X175.624 Y147.578 E8.39261
G1 X175.78 Y147.324 E8.40253
G1 X175.818 Y147.084 E8.41061
G1 X175.941 Y146.653 E8.42552
G1 X176.078 Y146.348 E8.43664
G1 X176.351 Y145.941 E8.45294
G1 X176.741 Y145.658 E8.46897
G1 X177.16 Y145.517 E8.48367
G1 X177.439 Y145.496 E8.49298
G1 X177.891 Y145.579 E8.50826
G1 X178.16 Y145.684 E8.51786
G1 X178.475 Y145.904 E8.53064
G1 X178.698 Y146.213 E8.54332
G1 X178.85 Y146.564 E8.55604
G1 X178.921 Y146.885 E8.56697
G1 X178.94 Y147.256 E8.57933
G1 X178.902 Y147.662 E8.59289
G1 X178.861 Y147.868 E8.59988
G1 X178.909 Y148.111 E8.60812
G1 X179.035 Y148.44 E8.61984
G1 X179.169 Y148.716 E8.63004
G1 X179.324 Y148.984 E8.64034
G1 X179.529 Y149.285 E8.65245
G1 X179.788 Y149.61 E8.66627
G1 X180.187 Y150.04 E8.68578
G1 X180.652 Y149.972 E8.70141
G1 X181.103 Y149.879 E8.71673
G1 X181.291 Y149.464 E8.73188
G1 X181.443 Y149.04 E8.74686
G1 X181.546 Y148.659 E8.75999
G1 X181.613 Y148.317 E8.77158
G1 X181.646 Y148.029 E8.78122
G1 X181.658 Y147.67 E8.79317
G1 X181.614 Y147.376 E8.80306
G1 X181.433 Y147.079 E8.81463
G1 X181.249 Y146.579 E8.83235
G1 X181.189 Y146.263 E8.84304
G1 X181.182 Y145.956 E8.85326
G1 X181.287 Y145.483 E8.86937
G1 X181.506 Y145.111 E8.88373
G1 X181.761 Y144.889 E8.89497
G1 X182.09 Y144.699 E8.90761
G1 F1203 X182.484 Y144.576 E8.92131
G1 X182.845 Y144.583 E8.93328
G1 X183.324 Y144.703 E8.94967
G1 F1200 X183.728 Y145.017 E8.96669
G1 X183.977 Y145.277 E8.97866
G1 X184.234 Y145.647 E8.99364
G1 X184.324 Y145.815 E8.99998
G1 X184.521 Y145.974 E9.0084
G1 X184.827 Y146.145 E9.02006
G1 X185.104 Y146.268 E9.03014
G1 X185.397 Y146.374 E9.0405
G1 X185.752 Y146.473 E9.05276
G1 X186.155 Y146.556 E9.06645
G1 X186.738 Y146.628 E9.08599
G1 X187.035 Y146.294 E9.10085
G1 X187.336 Y145.917 E9.1169
G1 X187.224 Y145.513 E9.13084
G1 X187.058 Y145.058 E9.14695
G1 X186.892 Y144.697 E9.16017
G1 X186.723 Y144.394 E9.1717
G1 X186.562 Y144.152 E9.18137
G1 X186.34 Y143.869 E9.19334
G1 X186.122 Y143.674 E9.20306
G1 X185.75 Y143.543 E9.21618
G1 X185.355 Y143.314 E9.23137
G1 X185.066 Y143.08 E9.24373
G1 X184.808 Y142.768 E9.2572
G1 X184.575 Y142.235 E9.27655
G1 F1283.4 X184.648 Y141.774 E9.29106
G1 X184.477 Y142.163 E9.30428
G1 F1200 X183.563 Y143.745 E9.36505
G1 F1203 X183.481 Y143.807 E9.36846
G1 X183.302 Y143.797 E9.3744
G1 F1200 X180.451 Y142.151 E9.4839
G1 X180.351 Y142.024 E9.48927
G1 X180.363 Y141.888 E9.49381
G1 X181.789 Y139.421 E9.58859
G1 X181.874 Y139.36 E9.59207
G1 X182.014 Y139.36 E9.59673
G1 X184.569 Y140.832 E9.6948
G1 F1259.8 X184.884 Y141.044 E9.70683
G1 F1655.2 X184.899 Y141.253 E9.71188
G1 F1690.1 X184.957 Y140.997 E9.71808
G1 F1280 X185.073 Y140.612 E9.73062
G1 F1200 X185.107 Y140.219 E9.74374
G1 X185.08 Y139.905 E9.75422
G1 X184.938 Y139.455 E9.76991
G1 X184.74 Y139.119 E9.78289
G1 X184.462 Y138.84 E9.79599
G1 X184.201 Y138.657 E9.80659
G1 X155.5 Y122.087 E10.90885
G1 X154.19 Y121.405 E10.95798
G1 X154.117 Y121.298 E10.96228
G1 X154.117 Y119.564 E11.01996
G1 X118.963 Y119.564 E12.18918
G1 X118.963 Y127.776 E12.46232
G1 X153.157 Y127.776 E13.59961
G1 X169.402 Y137.155 E14.22351
G1 X169.71 Y137.4 E14.2366
G1 X169.927 Y137.546 E14.2453
G1 X170.249 Y137.717 E14.25743
G1 X170.512 Y137.796 E14.26656
G1 X172.408 Y138.894 E14.33943
G1 X172.479 Y139.051 E14.34516
G1 X172.475 Y139.604 E14.36356
G1 X172.309 Y140.118 E14.38152
G1 X171.975 Y140.471 E14.39768
G1 X171.543 Y140.721 E14.41429
G1 X171.213 Y140.831 E14.42585
G1 X170.827 Y140.892 E14.43885
G1 X170.392 Y140.898 E14.45332
G1 X170.153 Y140.99 E14.46184
G1 X169.855 Y141.171 E14.47344
G1 X169.61 Y141.349 E14.48351
G1 X169.371 Y141.551 E14.49392
G1 X169.11 Y141.807 E14.50608
G1 X168.835 Y142.117 E14.51986
G1 X168.479 Y142.585 E14.53942
G1 X168.628 Y143.029 E14.55499
G1 X168.797 Y143.456 E14.57027
G1 X169.238 Y143.57 E14.58542
G1 X169.683 Y143.646 E14.60043
G1 X170.076 Y143.683 E14.61356
G1 X170.418 Y143.688 E14.62494
G1 X170.713 Y143.67 E14.63477
G1 X171.057 Y143.622 E14.64632
G1 X171.349 Y143.527 E14.65653
G1 X171.63 Y143.283 E14.66891
G1 X172.053 Y143.036 E14.6852
G1 X172.389 Y142.91 E14.69714
G1 X172.764 Y142.845 E14.7098
G1 X173.159 Y142.874 E14.72297
G1 X173.55 Y143.024 E14.7369
G1 X173.811 Y143.221 E14.74777
G1 X174.08 Y143.541 E14.76168
G1 X174.226 Y143.81 E14.77186
G1 X174.314 Y144.201 E14.78519
G1 X174.295 Y144.577 E14.79771
G1 X174.127 Y145.045 E14.81425
G1 X173.942 Y145.347 E14.82603
G1 X173.671 Y145.657 E14.83972
G1 X173.362 Y145.921 E14.85324
G1 X173.235 Y146.146 E14.86183
G1 X173.123 Y146.477 E14.87346
G1 X173.047 Y146.774 E14.88365
G1 X172.995 Y147.079 E14.89394
G1 X172.958 Y147.443 E14.90611
G1 X172.948 Y147.854 E14.91979
G1 X172.978 Y148.443 E14.9394
G1 X173.407 Y148.704 E14.9561
G1 X173.78 Y148.907 E14.97023
G0 F6000 X173.709 Y148.298
G0 X175.553 Y147.238
G0 X175.71 Y146.584
G0 X176.17 Y145.776
G0 X176.626 Y145.446
G0 X177.102 Y145.281
G0 X177.455 Y145.254
G0 X178.949 Y145.606
G0 X179.537 Y148.184
G0 X180.046 Y149.033
G0 X180.399 Y149.438
G0 X180.708 Y149.384
G0 X181.014 Y148.458
G0 X181.09 Y147.663
G0 X180.814 Y145.179
G0 X182.474 Y143.995
G0 X183.08 Y144.182
;TYPE:WALL-INNER
G1 F985.6 X183.392 Y144.265 E14.9833
G0 F6000 X183.88 Y144.499
G0 X185.043 Y145.693
G0 X185.168 Y145.464
;TYPE:SKIN
G1 F1200 X185.526 Y145.621 E14.9963
