;FLAVOR:Marlin
;TIME:2173
;Filament used: 1.42195m
;Layer height: 0.2
;MINX:115.198
;MINY:115.197
;MINZ:0.2
;MAXX:184.801
;MAXY:184.799
;MAXZ:7.6
;Generated with Cura_SteamEngine main
M140 S60
M105
M190 S60
M104 S200
M105
M109 S200
M82 ;absolute extrusion mode
; Ender 3 Max Custom Start G-code
G92 E0 ; Reset Extruder
G28 ; Home all axes
G1 Z2.0 F3000 ; Move Z Axis up little to prevent scratching of Heat Bed
G1 X0.1 Y20 Z0.3 F5000.0 ; Move to start position
G1 X0.1 Y200.0 Z0.3 F1500.0 E15 ; Draw the first line
G1 X0.4 Y200.0 Z0.3 F5000.0 ; Move to side a little
G1 X0.4 Y20 Z0.3 F1500.0 E30 ; Draw the second line
G92 E0 ; Reset Extruder
G1 Z2.0 F3000 ; Move Z Axis up little to prevent scratching of Heat Bed
G1 X5 Y20 Z0.3 F5000.0 ; Move over to prevent blob squish
G92 E0
G92 E0
G1 F1500 E-6.5
;LAYER_COUNT:39
;LAYER:0
M107
;MESH:cropped_bottom_eezibotarm.stl
G0 F6000 X149.973 Y181.6 Z0.2
;TYPE:WALL-INNER
G1 F1500 E0
G1 F1200 X147.175 Y181.477 E0.09315
G1 X144.871 Y181.175 E0.17044
G1 X144.518 Y181.121 E0.18232
G1 X143.987 Y181.021 E0.20029
G1 X143.057 Y180.799 E0.23209
G1 X141.797 Y180.517 E0.27503
G1 X139.215 Y179.702 E0.36509
G1 X138.404 Y179.385 E0.39405
G1 X137.201 Y178.887 E0.43735
G1 X136.621 Y178.629 E0.45847
G1 X134.22 Y177.378 E0.54851
G1 X131.875 Y175.89 E0.64089
G1 X129.708 Y174.223 E0.73182
G1 X127.628 Y172.316 E0.82568
G1 X125.774 Y170.291 E0.91699
G1 X124.105 Y168.116 E1.00818
G1 X122.633 Y165.802 E1.09939
G1 X121.368 Y163.372 E1.19051
G1 X120.29 Y160.769 E1.28422
G1 X119.481 Y158.197 E1.3739
G1 X118.876 Y155.48 E1.46648
G1 X118.52 Y152.755 E1.55788
G1 X118.4 Y149.974 E1.65046
G1 X118.522 Y147.221 E1.74212
G1 X118.881 Y144.505 E1.83324
G1 X119.48 Y141.81 E1.92506
G1 X120.294 Y139.23 E2.01504
G1 X121.373 Y136.615 E2.10913
G1 X122.621 Y134.222 E2.1989
G1 X124.111 Y131.874 E2.29139
G1 X125.795 Y129.686 E2.38322
G1 X127.656 Y127.655 E2.47484
G1 X129.685 Y125.794 E2.56641
G1 X131.876 Y124.111 E2.6583
G1 X134.222 Y122.62 E2.75076
G1 X136.65 Y121.358 E2.84177
G1 X137.225 Y121.103 E2.86269
G1 X138.023 Y120.789 E2.89121
G1 X139.23 Y120.294 E2.9346
G1 X141.836 Y119.471 E3.0255
G1 X142.767 Y119.252 E3.05731
G1 X144.015 Y118.974 E3.09983
G1 X144.507 Y118.881 E3.11649
G1 X147.264 Y118.518 E3.20898
G1 X150.027 Y118.4 E3.30096
G1 X152.738 Y118.518 E3.39121
G1 X155.482 Y118.879 E3.48327
G1 X156.011 Y118.978 E3.50117
G1 X156.939 Y119.199 E3.53289
G1 X158.16 Y119.469 E3.57449
G1 X160.785 Y120.298 E3.66604
G1 X161.609 Y120.62 E3.69547
G1 X162.799 Y121.112 E3.7383
G1 X163.365 Y121.363 E3.75889
G1 X165.823 Y122.646 E3.85111
G1 X168.127 Y124.11 E3.9419
G1 X170.311 Y125.792 E4.03359
G1 X172.345 Y127.655 E4.12533
G1 X174.207 Y129.686 E4.21697
G1 X175.891 Y131.876 E4.30886
G1 X177.369 Y134.201 E4.40049
G1 X178.634 Y136.632 E4.49164
G1 X179.697 Y139.194 E4.58389
G1 X180.53 Y141.839 E4.67613
G1 X181.127 Y144.535 E4.76797
G1 X181.482 Y147.26 E4.85937
G1 X181.602 Y150.009 E4.95089
G1 X181.481 Y152.758 E5.04241
G1 X181.121 Y155.486 E5.13393
G1 X180.53 Y158.153 E5.22478
G1 X179.689 Y160.819 E5.31776
G1 X178.634 Y163.373 E5.40967
G1 X177.366 Y165.804 E5.50086
G1 X175.89 Y168.126 E5.59238
G1 X174.206 Y170.314 E5.68421
G1 X172.344 Y172.345 E5.77585
G1 X170.314 Y174.209 E5.86752
G1 X168.124 Y175.89 E5.95934
G1 X165.809 Y177.363 E6.0506
G1 X163.372 Y178.632 E6.14199
G1 X162.799 Y178.887 E6.16285
G1 X161.978 Y179.211 E6.1922
G1 X160.806 Y179.697 E6.2344
G1 X159.008 Y180.264 E6.29711
G1 X158.184 Y180.524 E6.32585
G1 X157.227 Y180.751 E6.35856
G1 X155.985 Y181.026 E6.40087
G1 X155.472 Y181.123 E6.41823
G1 X155.129 Y181.175 E6.42977
G1 X152.831 Y181.474 E6.50685
G1 X149.973 Y181.6 E6.602
G0 F6000 X149.991 Y181.2
;TYPE:WALL-OUTER
G1 F1200 X147.209 Y181.078 E6.69462
G1 X144.931 Y180.779 E6.77103
G1 X144.592 Y180.728 E6.78244
G1 X144.08 Y180.632 E6.79976
G1 X143.144 Y180.409 E6.83176
G1 X141.917 Y180.135 E6.87358
G1 X139.322 Y179.316 E6.96409
G1 X138.557 Y179.015 E6.99143
G1 X137.363 Y178.521 E7.03441
G1 X136.806 Y178.274 E7.05467
G1 X134.405 Y177.023 E7.14472
G1 X132.1 Y175.559 E7.23554
G1 X129.939 Y173.895 E7.32625
G1 X127.923 Y172.046 E7.41724
G1 X126.092 Y170.047 E7.5074
G1 X124.431 Y167.883 E7.59813
G1 X122.974 Y165.591 E7.68846
G1 X121.727 Y163.195 E7.7783
G1 X120.672 Y160.649 E7.86996
G1 X119.863 Y158.079 E7.95958
G1 X119.268 Y155.396 E8.05098
G1 X118.918 Y152.718 E8.14081
G1 X118.8 Y149.992 E8.23156
G1 X118.919 Y147.273 E8.32208
G1 X119.271 Y144.594 E8.41195
G1 X119.866 Y141.917 E8.50316
G1 X120.679 Y139.34 E8.59304
G1 X121.728 Y136.8 E8.68444
G1 X122.985 Y134.392 E8.77479
G1 X124.441 Y132.101 E8.86507
G1 X126.105 Y129.939 E8.95581
G1 X127.945 Y127.932 E9.04637
G1 X129.953 Y126.092 E9.13696
G1 X132.117 Y124.431 E9.22769
G1 X134.407 Y122.975 E9.31795
G1 X136.812 Y121.724 E9.40811
G1 X137.371 Y121.475 E9.42847
G1 X138.175 Y121.159 E9.4572
G1 X139.351 Y120.676 E9.49949
G1 X141.928 Y119.861 E9.58938
G1 X142.854 Y119.642 E9.62103
G1 X144.089 Y119.367 E9.66311
G1 X144.592 Y119.272 E9.68014
G1 X147.292 Y118.918 E9.77071
G1 X150.009 Y118.8 E9.86116
G1 X152.728 Y118.919 E9.95168
G1 X155.408 Y119.272 E10.04159
G1 X155.919 Y119.368 E10.05888
G1 X156.828 Y119.583 E10.08995
G1 X158.086 Y119.863 E10.13281
G1 X160.676 Y120.684 E10.22318
G1 X161.456 Y120.99 E10.25105
G1 X162.637 Y121.478 E10.29355
G1 X163.194 Y121.726 E10.31383
G1 X165.608 Y122.984 E10.40437
G1 X167.894 Y124.436 E10.49444
G1 X170.061 Y126.105 E10.58542
G1 X172.068 Y127.945 E10.67598
G1 X173.908 Y129.953 E10.76656
G1 X175.564 Y132.108 E10.85696
G1 X177.026 Y134.409 E10.94763
G1 X178.274 Y136.806 E11.03751
G1 X179.328 Y139.351 E11.12913
G1 X180.141 Y141.936 E11.21926
G1 X180.732 Y144.604 E11.31015
G1 X181.082 Y147.29 E11.40024
G1 X181.201 Y150.003 E11.49056
G1 X181.081 Y152.728 E11.58129
G1 X180.727 Y155.415 E11.67143
G1 X180.134 Y158.083 E11.76233
G1 X179.319 Y160.666 E11.85242
G1 X178.272 Y163.2 E11.94361
G1 X177.02 Y165.602 E12.0337
G1 X175.564 Y167.894 E12.12402
G1 X173.895 Y170.061 E12.21499
G1 X172.055 Y172.068 E12.30555
G1 X170.055 Y173.903 E12.39583
G1 X167.892 Y175.564 E12.48653
G1 X165.593 Y177.025 E12.57713
G1 X163.188 Y178.276 E12.6673
G1 X162.629 Y178.524 E12.68764
G1 X161.825 Y178.841 E12.71638
G1 X160.649 Y179.328 E12.75872
G1 X158.888 Y179.882 E12.82012
G1 X158.068 Y180.14 E12.84871
G1 X157.132 Y180.363 E12.88071
G1 X155.911 Y180.633 E12.9223
G1 X155.412 Y180.727 E12.93919
G1 X155.077 Y180.778 E12.95046
G1 X152.791 Y181.076 E13.02714
G1 X149.991 Y181.2 E13.12036
G1 F1500 E6.62036
G0 F6000 X149.966 Y181.7
G0 X150.136 Y184.193
G0 X149.994 Y184.399
;TYPE:WALL-INNER
G1 F1500 E13.12036
G1 F1200 X152.739 Y184.289 E13.21173
G1 X153.298 Y184.233 E13.23042
G1 X155.62 Y183.936 E13.30828
G1 X156.293 Y183.807 E13.33107
G1 X156.734 Y183.706 E13.34612
G1 X158.425 Y183.35 E13.40359
G1 X159.072 Y183.168 E13.42595
G1 X159.462 Y183.049 E13.43951
G1 X159.821 Y182.926 E13.45213
G1 X161.363 Y182.468 E13.50563
G1 X162.101 Y182.182 E13.53196
G1 X162.589 Y181.972 E13.54963
G1 X163.972 Y181.433 E13.59899
G1 X166.434 Y180.219 E13.69029
G1 X168.792 Y178.811 E13.78164
G1 X171.033 Y177.216 E13.87313
G1 X171.455 Y176.871 E13.89126
G1 X173.137 Y175.452 E13.96445
G1 X173.636 Y174.978 E13.98734
G1 X175.098 Y173.518 E14.05606
G1 X175.656 Y172.9 E14.08375
G1 X176.911 Y171.416 E14.1484
G1 X177.403 Y170.783 E14.17506
G1 X178.607 Y169.089 E14.24419
G1 X178.977 Y168.531 E14.26645
G1 X180.24 Y166.395 E14.34899
G1 X181.452 Y163.93 E14.44035
G1 X181.769 Y163.15 E14.46835
G1 X182.473 Y161.348 E14.5327
G1 X182.727 Y160.554 E14.56042
G1 X183.172 Y159.058 E14.61234
G1 X183.206 Y158.915 E14.61723
G1 X183.303 Y158.59 E14.62851
G1 X183.466 Y157.92 E14.65144
G1 X183.81 Y156.281 E14.70714
G1 X183.865 Y155.953 E14.7182
G1 X183.906 Y155.757 E14.72486
G1 X183.993 Y155.228 E14.74269
G1 X184.217 Y153.442 E14.80256
G1 X184.304 Y152.509 E14.83373
G1 X184.384 Y150.593 E14.89751
G1 X184.396 Y149.796 E14.92402
G1 X184.316 Y147.856 E14.9886
G1 X184.257 Y146.91 E15.02013
G1 X183.969 Y144.597 E15.09765
G1 X183.928 Y144.397 E15.10444
G1 X183.87 Y144.036 E15.1166
G1 X183.522 Y142.386 E15.17269
G1 X183.426 Y142.051 E15.18428
G1 X183.341 Y141.627 E15.19866
G1 X183.218 Y141.114 E15.21621
G1 X182.712 Y139.396 E15.27578
G1 X182.549 Y138.976 E15.29076
G1 X182.398 Y138.49 E15.30769
G1 X182.312 Y138.243 E15.31639
G1 X181.693 Y136.654 E15.37311
G1 X181.453 Y136.158 E15.39143
G1 X181.269 Y135.71 E15.40754
G1 X180.442 Y133.995 E15.47087
G1 X180.086 Y133.398 E15.49399
G1 X179.874 Y132.987 E15.50937
G1 X179.671 Y132.635 E15.52288
G1 X179.423 Y132.247 E15.5382
G1 X178.723 Y131.074 E15.58363
G1 X178.011 Y130.072 E15.62451
G1 X177.715 Y129.689 E15.64061
G1 X177.003 Y128.692 E15.68136
G1 X176.142 Y127.677 E15.72563
G1 X175.832 Y127.343 E15.74079
G1 X175.112 Y126.494 E15.77781
G1 X174.16 Y125.544 E15.82254
G1 X173.883 Y125.286 E15.83514
G1 X173.604 Y125.043 E15.84744
G1 X172.907 Y124.348 E15.88018
G1 X171.803 Y123.424 E15.92806
G1 X171.515 Y123.203 E15.94014
G1 X170.887 Y122.672 E15.96749
G1 X169.109 Y121.404 E16.04012
G1 X168.491 Y121 E16.06468
G1 X167.38 Y120.337 E16.10771
G1 X166.646 Y119.929 E16.13564
G1 X166.11 Y119.612 E16.15636
G1 X165.775 Y119.456 E16.16865
G1 X164.503 Y118.834 E16.21574
G1 X163.639 Y118.424 E16.24755
G1 X161.075 Y117.435 E16.33895
G1 X158.442 Y116.655 E16.43029
G1 X155.756 Y116.085 E16.52161
G1 X154.901 Y115.969 E16.55031
G1 X153.029 Y115.735 E16.61306
G1 X152.202 Y115.686 E16.64061
G1 X150.275 Y115.604 E16.70476
G1 X149.755 Y115.602 E16.72206
G1 X147.8 Y115.686 E16.78714
G1 X146.97 Y115.736 E16.8148
G1 X145.084 Y115.971 E16.87801
G1 X144.248 Y116.085 E16.90608
G1 X141.558 Y116.655 E16.99753
G1 X138.923 Y117.435 E17.08893
G1 X137.725 Y117.89 E17.13155
G1 X136.362 Y118.422 E17.18022
G1 X135.947 Y118.614 E17.19543
G1 X133.886 Y119.614 E17.27162
G1 X133.341 Y119.915 E17.29233
G1 X132.823 Y120.226 E17.31242
G1 X132.579 Y120.361 E17.3217
G1 X131.483 Y121.017 E17.36418
G1 X130.889 Y121.405 E17.38778
G1 X129.079 Y122.699 E17.46178
G1 X128.831 Y122.886 E17.47211
G1 X128.174 Y123.444 E17.50078
G1 X127.831 Y123.723 E17.51549
G1 X127.096 Y124.348 E17.54758
G1 X126.411 Y125.032 E17.57977
G1 X126.084 Y125.318 E17.59422
G1 X125.824 Y125.559 E17.60601
G1 X124.889 Y126.495 E17.65002
G1 X124.186 Y127.327 E17.68625
G1 X123.86 Y127.675 E17.70211
G1 X122.999 Y128.693 E17.74645
G1 X122.273 Y129.709 E17.78798
G1 X122.006 Y130.052 E17.80244
G1 X121.277 Y131.072 E17.84414
G1 X120.577 Y132.246 E17.8896
G1 X120.328 Y132.636 E17.90499
G1 X120.112 Y133.016 E17.91953
G1 X119.914 Y133.399 E17.93387
G1 X119.562 Y133.988 E17.95669
G1 X118.732 Y135.709 E18.02024
G1 X118.557 Y136.14 E18.03571
G1 X118.307 Y136.652 E18.05466
G1 X117.711 Y138.189 E18.10949
G1 X117.585 Y138.542 E18.12196
G1 X117.457 Y138.958 E18.13644
G1 X117.289 Y139.394 E18.15198
G1 X116.738 Y141.284 E18.21746
G1 X116.65 Y141.67 E18.23062
G1 X116.577 Y142.038 E18.2431
G1 X116.479 Y142.383 E18.25503
G1 X116.131 Y144.035 E18.31118
G1 X116.03 Y144.733 E18.33464
G1 X115.986 Y144.95 E18.342
G1 X115.743 Y146.91 E18.40769
G1 X115.683 Y147.883 E18.44012
G1 X115.603 Y149.758 E18.50254
G1 X115.615 Y150.593 E18.53031
G1 X115.696 Y152.51 E18.59413
G1 X115.785 Y153.462 E18.62593
G1 X116.011 Y155.253 E18.68597
G1 X116.094 Y155.754 E18.70286
G1 X116.137 Y155.96 E18.70986
G1 X116.193 Y156.297 E18.72122
G1 X116.543 Y157.956 E18.77762
G1 X116.696 Y158.586 E18.79918
G1 X116.785 Y158.878 E18.80933
G1 X116.827 Y159.055 E18.81538
G1 X117.258 Y160.503 E18.86563
G1 X117.53 Y161.361 E18.89557
G1 X118.237 Y163.166 E18.96004
G1 X118.547 Y163.927 E18.98737
G1 X119.786 Y166.442 E19.08062
G1 X120.276 Y167.28 E19.11291
G1 X121.021 Y168.527 E19.16122
G1 X121.419 Y169.126 E19.18514
G1 X121.853 Y169.731 E19.20991
G1 X121.939 Y169.862 E19.21512
G1 X122.615 Y170.806 E19.25374
G1 X123.123 Y171.46 E19.28128
G1 X123.669 Y172.102 E19.30931
G1 X124.228 Y172.72 E19.33703
G1 X124.908 Y173.524 E19.37205
G1 X125.652 Y174.263 E19.40693
G1 X126.195 Y174.785 E19.43198
G1 X126.868 Y175.456 E19.46359
G1 X128.968 Y177.218 E19.55477
G1 X131.204 Y178.808 E19.64602
G1 X133.567 Y180.218 E19.73754
G1 X134.231 Y180.553 E19.76228
G1 X136.122 Y181.479 E19.83231
G1 X137.603 Y182.057 E19.88519
G1 X137.931 Y182.195 E19.89702
G1 X138.649 Y182.473 E19.92263
G1 X140.2 Y182.932 E19.97643
G1 X140.583 Y183.062 E19.98988
G1 X141.062 Y183.206 E20.00652
G1 X141.575 Y183.349 E20.02423
G1 X143.273 Y183.708 E20.08195
G1 X143.728 Y183.812 E20.09748
G1 X144.376 Y183.935 E20.11941
G1 X146.725 Y184.235 E20.19818
G1 X147.261 Y184.288 E20.21609
G1 X149.436 Y184.383 E20.2885
G1 X149.994 Y184.399 E20.30707
G0 F6000 X149.996 Y184.799
;TYPE:WALL-OUTER
G1 F1200 X152.767 Y184.688 E20.39931
G1 X153.348 Y184.63 E20.41873
G1 X155.683 Y184.331 E20.49702
G1 X156.351 Y184.204 E20.51964
G1 X156.816 Y184.098 E20.5355
G1 X158.521 Y183.738 E20.59346
G1 X159.188 Y183.551 E20.6165
G1 X159.56 Y183.438 E20.62943
G1 X159.935 Y183.31 E20.64261
G1 X161.493 Y182.847 E20.69667
G1 X162.258 Y182.55 E20.72396
G1 X162.735 Y182.345 E20.74123
G1 X164.134 Y181.799 E20.79118
G1 X166.626 Y180.571 E20.88358
G1 X169.011 Y179.146 E20.97599
G1 X171.276 Y177.534 E21.06845
G1 X171.713 Y177.177 E21.08722
G1 X173.363 Y175.786 E21.159
G1 X173.929 Y175.25 E21.18493
G1 X175.388 Y173.794 E21.25348
G1 X175.974 Y173.143 E21.28262
G1 X177.227 Y171.662 E21.34714
G1 X177.724 Y171.022 E21.37409
G1 X178.94 Y169.311 E21.44391
G1 X179.316 Y168.744 E21.46653
G1 X180.112 Y167.408 E21.51826
G1 X180.592 Y166.585 E21.54995
G1 X181.817 Y164.094 E21.64227
G1 X182.132 Y163.319 E21.6701
G1 X182.851 Y161.482 E21.73571
G1 X183.11 Y160.668 E21.76412
G1 X183.559 Y159.162 E21.81639
G1 X183.606 Y158.971 E21.82293
G1 X183.689 Y158.695 E21.83252
G1 X183.862 Y157.981 E21.85695
G1 X184.204 Y156.355 E21.91222
G1 X184.257 Y156.035 E21.92301
G1 X184.3 Y155.831 E21.92994
G1 X184.389 Y155.286 E21.94831
G1 X184.615 Y153.486 E22.00865
G1 X184.704 Y152.536 E22.04038
G1 X184.784 Y150.599 E22.10486
G1 X184.796 Y149.802 E22.13137
G1 X184.716 Y147.831 E22.19698
G1 X184.655 Y146.873 E22.22891
G1 X184.364 Y144.531 E22.3074
G1 X184.323 Y144.334 E22.3141
G1 X184.264 Y143.963 E22.32659
G1 X183.91 Y142.288 E22.38353
G1 X183.818 Y141.973 E22.39445
G1 X183.73 Y141.534 E22.40934
G1 X183.604 Y141.011 E22.42723
G1 X183.091 Y139.266 E22.48773
G1 X182.931 Y138.857 E22.50233
G1 X182.776 Y138.358 E22.51971
G1 X182.647 Y138.001 E22.53234
G1 X182.06 Y136.494 E22.58613
G1 X181.823 Y136.006 E22.60417
G1 X181.635 Y135.547 E22.62067
G1 X180.794 Y133.805 E22.68501
G1 X180.441 Y133.213 E22.70793
G1 X180.225 Y132.795 E22.72358
G1 X180.013 Y132.427 E22.73771
G1 X179.767 Y132.042 E22.7529
G1 X179.059 Y130.856 E22.79884
G1 X178.333 Y129.834 E22.84054
G1 X178.041 Y129.457 E22.8564
G1 X177.319 Y128.446 E22.89772
G1 X176.442 Y127.411 E22.94284
G1 X176.122 Y127.067 E22.95847
G1 X175.406 Y126.222 E22.99531
G1 X174.454 Y125.271 E23.04006
G1 X174.146 Y124.984 E23.05406
G1 X173.868 Y124.742 E23.06632
G1 X173.177 Y124.052 E23.0988
G1 X172.046 Y123.106 E23.14784
G1 X171.773 Y122.898 E23.15926
G1 X171.133 Y122.356 E23.18715
G1 X169.335 Y121.074 E23.2606
G1 X168.703 Y120.66 E23.28573
G1 X167.574 Y119.987 E23.32944
G1 X166.85 Y119.585 E23.35699
G1 X166.297 Y119.258 E23.37835
G1 X163.797 Y118.056 E23.47062
G1 X161.204 Y117.056 E23.56305
G1 X158.54 Y116.267 E23.65546
G1 X155.824 Y115.691 E23.7478
G1 X154.951 Y115.572 E23.77711
G1 X153.066 Y115.337 E23.84029
G1 X152.193 Y115.284 E23.86938
G1 X150.284 Y115.204 E23.93293
G1 X149.739 Y115.202 E23.95106
G1 X147.776 Y115.286 E24.0164
G1 X146.933 Y115.338 E24.0445
G1 X145.03 Y115.575 E24.10828
G1 X144.18 Y115.691 E24.13681
G1 X141.46 Y116.267 E24.22929
G1 X138.795 Y117.056 E24.32173
G1 X137.58 Y117.517 E24.36495
G1 X136.206 Y118.054 E24.41402
G1 X135.773 Y118.254 E24.42988
G1 X133.702 Y119.258 E24.50643
G1 X133.136 Y119.571 E24.52794
G1 X132.611 Y119.886 E24.5483
G1 X132.374 Y120.017 E24.55731
G1 X131.295 Y120.662 E24.59912
G1 X130.663 Y121.075 E24.62423
G1 X128.837 Y122.38 E24.69888
G1 X128.581 Y122.574 E24.70956
G1 X127.922 Y123.133 E24.73831
G1 X127.628 Y123.371 E24.75089
G1 X126.824 Y124.053 E24.78595
G1 X126.136 Y124.74 E24.81829
