;FLAVOR:Marlin
;TIME:18529
;Filament used: 12.5407m
;Layer height: 0.2
;MINX:99.347
;MINY:74.085
;MINZ:0.2
;MAXX:200.653
;MAXY:225.915
;MAXZ:35.6
;Generated with Cura_SteamEngine main
M140 S60
M105
M190 S60
M104 S200
M105
M109 S200
M82 ;absolute extrusion mode
; Ender 3 Max Custom Start G-code
G92 E0 ; Reset Extruder
G28 ; Home all axes
G1 Z2.0 F3000 ; Move Z Axis up little to prevent scratching of Heat Bed
G1 X0.1 Y20 Z0.3 F5000.0 ; Move to start position
G1 X0.1 Y200.0 Z0.3 F1500.0 E15 ; Draw the first line
G1 X0.4 Y200.0 Z0.3 F5000.0 ; Move to side a little
G1 X0.4 Y20 Z0.3 F1500.0 E30 ; Draw the second line
G92 E0 ; Reset Extruder
G1 Z2.0 F3000 ; Move Z Axis up little to prevent scratching of Heat Bed
G1 X5 Y20 Z0.3 F5000.0 ; Move over to prevent blob squish
G92 E0
G92 E0
G1 F1500 E-6.5
;LAYER_COUNT:179
;LAYER:0
M107
G0 F6000 X136.8 Y78.55 Z0.2
;TYPE:SKIRT
G1 F1500 E0
G1 F1200 X159.2 Y78.55 E0.74503
G1 X159.2 Y98.4 E1.40524
G1 X136.8 Y98.4 E2.15027
G1 X136.8 Y78.55 E2.81048
G0 F6000 X136.4 Y78.15
G1 F1200 X159.6 Y78.15 E3.58212
G1 X159.6 Y98.8 E4.26894
G1 X136.4 Y98.8 E5.04057
G1 X136.4 Y78.15 E5.7274
G0 F6000 X136 Y77.75
G1 F1200 X160 Y77.75 E6.52564
G1 X160 Y99.2 E7.23907
G1 X136 Y99.2 E8.03731
G1 X136 Y77.75 E8.75074
G0 F6000 X135.6 Y77.35
G1 F1200 X160.4 Y77.35 E9.57559
G1 X160.4 Y99.6 E10.31563
G1 X135.6 Y99.6 E11.14048
G1 X135.6 Y77.35 E11.88052
G0 F6000 X135.2 Y76.95
G1 F1200 X160.8 Y76.95 E12.73198
G1 X160.8 Y100 E13.49863
G1 X135.2 Y100 E14.35009
G1 X135.2 Y76.95 E15.11673
G0 F6000 X134.8 Y76.55
G1 F1200 X161.2 Y76.55 E15.9948
G1 X161.2 Y100.4 E16.78805
G1 X134.8 Y100.4 E17.66612
G1 X134.8 Y76.55 E18.45937
G0 F6000 X134.4 Y76.15
G1 F1200 X161.6 Y76.15 E19.36405
G1 X161.6 Y100.8 E20.18391
G1 X134.4 Y100.8 E21.08859
G1 X134.4 Y76.15 E21.90845
G0 F6000 X134 Y75.75
G1 F1200 X162 Y75.75 E22.83973
G1 X162 Y101.2 E23.68621
G1 X134 Y101.2 E24.61749
G1 X134 Y75.75 E25.46396
G0 F6000 X133.6 Y75.35
G1 F1200 X162.4 Y75.35 E26.42185
G1 X162.4 Y101.6 E27.29493
G1 X133.6 Y101.6 E28.25282
G1 X133.6 Y75.35 E29.1259
G0 F6000 X133.2 Y74.95
G1 F1200 X162.8 Y74.95 E30.1104
G1 X162.8 Y102 E31.01009
G1 X133.2 Y102 E31.99459
G1 X133.2 Y74.95 E32.89427
G1 F1500 E26.39427
G0 F6000 X99.347 Y102.347
G0 X99.347 Y197.653
G0 X133.2 Y198
G1 F1500 E32.89427
G1 F1200 X162.8 Y198 E33.87877
G1 X162.8 Y225.05 E34.77846
G1 X133.2 Y225.05 E35.76296
G1 X133.2 Y198 E36.66265
G0 F6000 X133.6 Y198.4
G1 F1200 X162.4 Y198.4 E37.62054
G1 X162.4 Y224.65 E38.49362
G1 X133.6 Y224.65 E39.45151
G1 X133.6 Y198.4 E40.32459
G0 F6000 X134 Y198.8
G1 F1200 X162 Y198.8 E41.25587
G1 X162 Y224.25 E42.10234
G1 X134 Y224.25 E43.03363
G1 X134 Y198.8 E43.8801
G0 F6000 X134.4 Y199.2
G1 F1200 X161.6 Y199.2 E44.78477
G1 X161.6 Y223.85 E45.60463
G1 X134.4 Y223.85 E46.50931
G1 X134.4 Y199.2 E47.32917
G0 F6000 X134.8 Y199.6
G1 F1200 X161.2 Y199.6 E48.20724
G1 X161.2 Y223.45 E49.00049
G1 X134.8 Y223.45 E49.87856
G1 X134.8 Y199.6 E50.67182
G0 F6000 X135.2 Y200
G1 F1200 X160.8 Y200 E51.52328
G1 X160.8 Y223.05 E52.28992
G1 X135.2 Y223.05 E53.14138
G1 X135.2 Y200 E53.90803
G0 F6000 X135.6 Y200.4
G1 F1200 X160.4 Y200.4 E54.73288
G1 X160.4 Y222.65 E55.47292
G1 X135.6 Y222.65 E56.29777
G1 X135.6 Y200.4 E57.03781
G0 F6000 X136 Y200.8
G1 F1200 X160 Y200.8 E57.83605
G1 X160 Y222.25 E58.54948
G1 X136 Y222.25 E59.34772
G1 X136 Y200.8 E60.06115
G0 F6000 X136.4 Y201.2
G1 F1200 X159.6 Y201.2 E60.83279
G1 X159.6 Y221.85 E61.51961
G1 X136.4 Y221.85 E62.29124
G1 X136.4 Y201.2 E62.97807
G0 F6000 X136.8 Y201.6
G1 F1200 X159.2 Y201.6 E63.72309
G1 X159.2 Y221.45 E64.38331
G1 X136.8 Y221.45 E65.12833
G1 X136.8 Y201.6 E65.78855
G0 F6000 X137.08 Y201.88
;TYPE:SUPPORT
G1 F1200 X137.08 Y221.17 E66.43014
G1 X158.92 Y221.17 E67.15654
G1 X158.92 Y211.525 E67.47733
G1 X158.92 Y201.88 E67.79812
G1 X137.08 Y201.88 E68.52453
G1 F1500 E62.02453
G0 F6000 X137.08 Y201.135
G0 X140 Y201.135
G0 X140 Y201.96
G1 F1500 E68.52453
G1 F1200 X140 Y221.09 E69.16079
G1 F1500 E62.66079
G0 F6000 X140 Y221.915
G0 X136.347 Y221.903
G0 X136.335 Y220
G0 X137.159 Y220
G1 F1500 E69.16079
G1 F1200 X158.839 Y220 E69.88187
G1 F1500 E63.38187
G0 F6000 X159.665 Y220
G0 X159.653 Y221.903
G0 X150 Y221.915
G0 X150 Y221.09
G1 F1500 E69.88187
G1 F1200 X150 Y201.96 E70.51814
G1 F1500 E64.01814
G0 F6000 X150 Y201.135
G0 X159.653 Y201.147
G0 X159.665 Y210
G0 X158.839 Y210
G1 F1500 E70.51814
G1 F1200 X137.159 Y210 E71.23922
G1 F1500 E64.73922
G0 F6000 X136.335 Y210
G0 X99.347 Y197.653
G0 X99.347 Y102.347
G0 X137.08 Y98.865
G0 X137.08 Y98.12
G1 F1500 E71.23922
G1 F1200 X158.92 Y98.12 E71.96562
G1 X158.92 Y88.475 E72.28641
G1 X158.92 Y78.83 E72.60721
G1 X137.08 Y78.83 E73.33361
G1 X137.08 Y98.12 E73.9752
G1 F1500 E67.4752
G0 F6000 X137.08 Y98.865
G0 X140 Y98.865
G0 X140 Y98.04
G1 F1500 E73.9752
G1 F1200 X140 Y78.91 E74.61146
G1 F1500 E68.11146
G0 F6000 X140 Y78.085
G0 X136.347 Y78.097
G0 X136.335 Y80
G0 X137.158 Y80
G1 F1500 E74.61146
G1 F1200 X158.838 Y80 E75.33254
G1 F1500 E68.83254
G0 F6000 X159.665 Y80
G0 X159.653 Y78.097
G0 X150 Y78.085
G0 X150 Y78.91
G1 F1500 E75.33254
G1 F1200 X150 Y98.04 E75.96881
G1 F1500 E69.46881
G0 F6000 X150 Y98.865
G0 X159.653 Y98.853
G0 X159.665 Y90
G0 X158.838 Y90
G1 F1500 E75.96881
G1 F1200 X137.158 Y90 E76.68989
G1 F1500 E70.18989
;MESH:breadboard_cover_for_car_arm.STL
G0 F6000 X136.335 Y90
G0 X136.347 Y98.853
G0 X137.158 Y102.335
G0 X100.6 Y196.4
;TYPE:WALL-INNER
G1 F1500 E76.68989
G1 F1200 X199.4 Y196.4 E79.97599
G1 X199.4 Y150 E81.51926
G1 X199.4 Y103.6 E83.06253
G1 X100.6 Y103.6 E86.34863
G1 X100.6 Y196.4 E89.43517
G0 F6000 X100.2 Y196.8
;TYPE:WALL-OUTER
G1 F1200 X199.8 Y196.8 E92.74788
G1 X199.8 Y150 E94.30446
G1 X199.8 Y103.2 E95.86103
G1 X100.2 Y103.2 E99.17374
G1 X100.2 Y196.8 E102.28689
G0 F6000 X100.47 Y196.53
G0 X100.7 Y196.04
G0 X100.96 Y196.04
;TYPE:SKIN
G1 F1200 X199.04 Y196.04 E105.54904
G1 X199.04 Y150 E107.08034
G1 X199.04 Y103.96 E108.61164
G1 X100.96 Y103.96 E111.87379
G1 X100.96 Y196.04 E114.93638
G0 F6000 X101.369 Y195.838
G1 F1200 X101.16 Y195.629 E114.94621
G0 F6000 X101.16 Y195.063
G1 F1200 X101.935 Y195.838 E114.98267
G0 F6000 X102.5 Y195.838
G1 F1200 X101.16 Y194.498 E115.0457
G0 F6000 X101.16 Y193.932
G1 F1200 X103.066 Y195.838 E115.13535
G0 F6000 X103.632 Y195.838
G1 F1200 X101.16 Y193.366 E115.25163
G0 F6000 X101.16 Y192.801
G1 F1200 X104.197 Y195.838 E115.39448
G0 F6000 X104.763 Y195.838
G1 F1200 X101.16 Y192.235 E115.56395
G0 F6000 X101.16 Y191.669
G1 F1200 X105.329 Y195.838 E115.76005
G0 F6000 X105.894 Y195.838
G1 F1200 X101.16 Y191.104 E115.98272
G0 F6000 X101.16 Y190.538
G1 F1200 X106.46 Y195.838 E116.23202
G0 F6000 X107.026 Y195.838
G1 F1200 X101.16 Y189.972 E116.50793
G0 F6000 X101.16 Y189.407
G1 F1200 X107.591 Y195.838 E116.81043
G0 F6000 X108.157 Y195.838
G1 F1200 X101.16 Y188.841 E117.13955
G0 F6000 X101.16 Y188.275
G1 F1200 X108.723 Y195.838 E117.49529
G0 F6000 X109.289 Y195.838
G1 F1200 X101.16 Y187.709 E117.87765
G0 F6000 X101.16 Y187.144
G1 F1200 X109.854 Y195.838 E118.28659
G0 F6000 X110.42 Y195.838
G1 F1200 X101.16 Y186.578 E118.72215
G0 F6000 X101.16 Y186.012
G1 F1200 X110.986 Y195.838 E119.18434
G0 F6000 X111.551 Y195.838
G1 F1200 X101.16 Y185.447 E119.6731
G0 F6000 X101.16 Y184.881
G1 F1200 X112.117 Y195.838 E120.18848
G0 F6000 X112.683 Y195.838
G1 F1200 X101.16 Y184.315 E120.73049
G0 F6000 X101.16 Y183.75
G1 F1200 X113.248 Y195.838 E121.29907
G0 F6000 X113.814 Y195.838
G1 F1200 X101.16 Y183.184 E121.89427
G0 F6000 X101.16 Y182.618
G1 F1200 X114.38 Y195.838 E122.5161
G0 F6000 X114.945 Y195.838
G1 F1200 X101.16 Y182.053 E123.16451
G0 F6000 X101.16 Y181.487
G1 F1200 X115.511 Y195.838 E123.83953
G0 F6000 X116.077 Y195.838
G1 F1200 X101.16 Y180.921 E124.54118
G0 F6000 X101.16 Y180.356
G1 F1200 X116.642 Y195.838 E125.26941
G0 F6000 X117.208 Y195.838
G1 F1200 X101.16 Y179.79 E126.02426
G0 F6000 X101.16 Y179.224
G1 F1200 X117.774 Y195.838 E126.80573
G0 F6000 X118.339 Y195.838
G1 F1200 X101.16 Y178.659 E127.61378
G0 F6000 X101.16 Y178.093
G1 F1200 X118.905 Y195.838 E128.44845
G0 F6000 X119.471 Y195.838
G1 F1200 X101.16 Y177.527 E129.30974
G0 F6000 X101.16 Y176.961
G1 F1200 X120.037 Y195.838 E130.19766
G0 F6000 X120.602 Y195.838
G1 F1200 X101.16 Y176.396 E131.11215
G0 F6000 X101.16 Y175.83
G1 F1200 X121.168 Y195.838 E132.05326
G0 F6000 X121.734 Y195.838
G1 F1200 X101.16 Y175.264 E133.021
G0 F6000 X101.16 Y174.699
G1 F1200 X122.299 Y195.838 E134.01532
G0 F6000 X122.865 Y195.838
G1 F1200 X101.16 Y174.133 E135.03625
G0 F6000 X101.16 Y173.567
G1 F1200 X123.431 Y195.838 E136.08381
G0 F6000 X123.996 Y195.838
G1 F1200 X101.16 Y173.002 E137.15795
G0 F6000 X101.16 Y172.436
G1 F1200 X124.562 Y195.838 E138.25871
G0 F6000 X125.128 Y195.838
G1 F1200 X101.16 Y171.87 E139.38609
G0 F6000 X101.16 Y171.305
G1 F1200 X125.693 Y195.838 E140.54004
G0 F6000 X126.259 Y195.838
G1 F1200 X101.16 Y170.739 E141.72062
G0 F6000 X101.16 Y170.173
G1 F1200 X126.825 Y195.838 E142.92783
G0 F6000 X127.39 Y195.838
G1 F1200 X101.16 Y169.608 E144.16161
G0 F6000 X101.16 Y169.042
G1 F1200 X127.956 Y195.838 E145.42201
G0 F6000 X128.522 Y195.838
G1 F1200 X101.16 Y168.476 E146.70903
G0 F6000 X101.16 Y167.91
G1 F1200 X129.087 Y195.838 E148.02266
G0 F6000 X129.653 Y195.838
G1 F1200 X101.16 Y167.345 E149.36288
G0 F6000 X101.16 Y166.779
G1 F1200 X130.219 Y195.838 E150.72973
G0 F6000 X130.785 Y195.838
G1 F1200 X101.16 Y166.213 E152.1232
G0 F6000 X101.16 Y165.648
G1 F1200 X131.35 Y195.838 E153.54324
G0 F6000 X131.916 Y195.838
G1 F1200 X101.16 Y165.082 E154.98991
G0 F6000 X101.16 Y164.516
G1 F1200 X132.482 Y195.838 E156.4632
G0 F6000 X133.047 Y195.838
G1 F1200 X101.16 Y163.951 E157.96307
G0 F6000 X101.16 Y163.385
G1 F1200 X133.613 Y195.838 E159.48956
G0 F6000 X134.179 Y195.838
G1 F1200 X101.16 Y162.819 E161.04267
G0 F6000 X101.16 Y162.254
G1 F1200 X134.744 Y195.838 E162.62236
G0 F6000 X135.31 Y195.838
G1 F1200 X101.16 Y161.688 E164.22867
G0 F6000 X101.16 Y161.122
G1 F1200 X135.876 Y195.838 E165.8616
G0 F6000 X136.441 Y195.838
G1 F1200 X101.16 Y160.557 E167.52111
G0 F6000 X101.16 Y159.991
G1 F1200 X137.007 Y195.838 E169.20725
G0 F6000 X137.573 Y195.838
G1 F1200 X101.16 Y159.425 E170.92
G0 F6000 X101.16 Y158.86
G1 F1200 X138.138 Y195.838 E172.65933
G0 F6000 X138.704 Y195.838
G1 F1200 X101.16 Y158.294 E174.42529
G0 F6000 X101.16 Y157.728
G1 F1200 X139.27 Y195.838 E176.21787
G0 F6000 X139.836 Y195.838
G1 F1200 X101.16 Y157.162 E178.03707
G0 F6000 X101.16 Y156.597
G1 F1200 X140.401 Y195.838 E179.88284
G0 F6000 X140.967 Y195.838
G1 F1200 X101.16 Y156.031 E181.75524
G0 F6000 X101.16 Y155.465
G1 F1200 X141.533 Y195.838 E183.65426
G0 F6000 X142.098 Y195.838
G1 F1200 X101.16 Y154.9 E185.57986
G0 F6000 X101.16 Y154.334
G1 F1200 X142.664 Y195.838 E187.53208
G0 F6000 X143.23 Y195.838
G1 F1200 X101.16 Y153.768 E189.51093
G0 F6000 X101.16 Y153.203
G1 F1200 X143.795 Y195.838 E191.51635
G0 F6000 X144.361 Y195.838
G1 F1200 X101.16 Y152.637 E193.54839
G0 F6000 X101.16 Y152.071
G1 F1200 X144.927 Y195.838 E195.60705
G0 F6000 X145.492 Y195.838
G1 F1200 X101.16 Y151.506 E197.6923
G0 F6000 X101.16 Y150.94
G1 F1200 X146.058 Y195.838 E199.80416
G0 F6000 X146.624 Y195.838
G1 F1200 X101.16 Y150.374 E201.94265
G0 F6000 X101.16 Y149.809
G1 F1200 X147.189 Y195.838 E204.10771
G0 F6000 X147.755 Y195.838
G1 F1200 X101.16 Y149.243 E206.2994
G0 F6000 X101.16 Y148.677
G1 F1200 X148.321 Y195.838 E208.5177
G0 F6000 X148.886 Y195.838
G1 F1200 X101.16 Y148.112 E210.76259
G0 F6000 X101.16 Y147.546
G1 F1200 X149.452 Y195.838 E213.0341
G0 F6000 X150.018 Y195.838
G1 F1200 X101.16 Y146.98 E215.33223
G0 F6000 X101.16 Y146.414
G1 F1200 X150.584 Y195.838 E217.65698
G0 F6000 X151.149 Y195.838
G1 F1200 X101.16 Y145.849 E220.00831
G0 F6000 X101.16 Y145.283
G1 F1200 X151.715 Y195.838 E222.38626
G0 F6000 X152.281 Y195.838
G1 F1200 X101.16 Y144.717 E224.79084
G0 F6000 X101.16 Y144.152
G1 F1200 X152.846 Y195.838 E227.22199
G0 F6000 X153.412 Y195.838
G1 F1200 X101.16 Y143.586 E229.67976
G0 F6000 X101.16 Y143.02
G1 F1200 X153.978 Y195.838 E232.16416
G0 F6000 X154.543 Y195.838
G1 F1200 X101.16 Y142.455 E234.67513
G0 F6000 X101.16 Y141.889
G1 F1200 X155.109 Y195.838 E237.21273
G0 F6000 X155.675 Y195.838
G1 F1200 X101.16 Y141.323 E239.77695
G0 F6000 X101.16 Y140.758
G1 F1200 X156.24 Y195.838 E242.36774
G0 F6000 X156.806 Y195.838
G1 F1200 X101.16 Y140.192 E244.98516
G0 F6000 X101.16 Y139.626
G1 F1200 X157.372 Y195.838 E247.6292
G0 F6000 X157.937 Y195.838
G1 F1200 X101.16 Y139.061 E250.29981
G0 F6000 X101.16 Y138.495
G1 F1200 X158.503 Y195.838 E252.99705
G0 F6000 X159.069 Y195.838
G1 F1200 X101.16 Y137.929 E255.72091
G0 F6000 X101.16 Y137.363
G1 F1200 X159.635 Y195.838 E258.4714
G0 F6000 X160.2 Y195.838
G1 F1200 X101.16 Y136.798 E261.24846
G0 F6000 X101.16 Y136.232
G1 F1200 X160.766 Y195.838 E264.05214
G0 F6000 X161.332 Y195.838
G1 F1200 X101.16 Y135.666 E266.88245
G0 F6000 X101.16 Y135.101
G1 F1200 X161.897 Y195.838 E269.73933
G0 F6000 X162.463 Y195.838
G1 F1200 X101.16 Y134.535 E272.62284
G0 F6000 X101.16 Y133.969
G1 F1200 X163.029 Y195.838 E275.53296
G0 F6000 X163.594 Y195.838
G1 F1200 X101.16 Y133.404 E278.46967
G0 F6000 X101.16 Y132.838
G1 F1200 X164.16 Y195.838 E281.433
G0 F6000 X164.726 Y195.838
G1 F1200 X101.16 Y132.272 E284.42295
G0 F6000 X101.16 Y131.707
G1 F1200 X165.291 Y195.838 E287.43947
G0 F6000 X165.857 Y195.838
G1 F1200 X101.16 Y131.141 E290.48262
G0 F6000 X101.16 Y130.575
G1 F1200 X166.423 Y195.838 E293.55239
G0 F6000 X166.988 Y195.838
G1 F1200 X101.16 Y130.01 E296.64874
G0 F6000 X101.16 Y129.444
G1 F1200 X167.554 Y195.838 E299.77171
G0 F6000 X168.12 Y195.838
G1 F1200 X101.16 Y128.878 E302.9213
G0 F6000 X101.16 Y128.313
G1 F1200 X168.685 Y195.838 E306.09747
G0 F6000 X169.251 Y195.838
G1 F1200 X101.16 Y127.747 E309.30026
G0 F6000 X101.16 Y127.181
G1 F1200 X169.817 Y195.838 E312.52968
G0 F6000 X170.383 Y195.838
G1 F1200 X101.16 Y126.615 E315.78571
G0 F6000 X101.16 Y126.05
G1 F1200 X170.948 Y195.838 E319.06833
G0 F6000 X171.514 Y195.838
G1 F1200 X101.16 Y125.484 E322.37756
G0 F6000 X101.16 Y124.918
G1 F1200 X172.08 Y195.838 E325.71342
G0 F6000 X172.645 Y195.838
G1 F1200 X101.16 Y124.353 E329.07586
G0 F6000 X101.16 Y123.787
G1 F1200 X173.211 Y195.838 E332.46492
G0 F6000 X173.777 Y195.838
G1 F1200 X101.16 Y123.221 E335.8806
G0 F6000 X101.16 Y122.656
G1 F1200 X174.342 Y195.838 E339.32286
G0 F6000 X174.908 Y195.838
G1 F1200 X101.16 Y122.09 E342.79174
G0 F6000 X101.16 Y121.524
G1 F1200 X175.474 Y195.838 E346.28724
G0 F6000 X176.039 Y195.838
G1 F1200 X101.16 Y120.959 E349.80932
G0 F6000 X101.16 Y120.393
G1 F1200 X176.605 Y195.838 E353.35802
G0 F6000 X177.171 Y195.838
G1 F1200 X101.16 Y119.827 E356.93334
G0 F6000 X101.16 Y119.262
G1 F1200 X177.736 Y195.838 E360.53524
G0 F6000 X178.302 Y195.838
G1 F1200 X101.16 Y118.696 E364.16377
G0 F6000 X101.16 Y118.13
G1 F1200 X178.868 Y195.838 E367.81891
G0 F6000 X179.434 Y195.838
G1 F1200 X101.16 Y117.564 E371.50068
G0 F6000 X101.16 Y116.999
G1 F1200 X179.999 Y195.838 E375.20903
G0 F6000 X180.565 Y195.838
G1 F1200 X101.16 Y116.433 E378.94399
G0 F6000 X101.16 Y115.867
G1 F1200 X181.131 Y195.838 E382.70558
G0 F6000 X181.696 Y195.838
G1 F1200 X101.16 Y115.302 E386.49375
G0 F6000 X101.16 Y114.736
G1 F1200 X182.262 Y195.838 E390.30854
G0 F6000 X182.828 Y195.838
G1 F1200 X101.16 Y114.17 E394.14995
G0 F6000 X101.16 Y113.605
G1 F1200 X183.393 Y195.838 E398.01794
G0 F6000 X183.959 Y195.838
G1 F1200 X101.16 Y113.039 E401.91255
G0 F6000 X101.16 Y112.473
G1 F1200 X184.525 Y195.838 E405.83379
G0 F6000 X185.09 Y195.838
G1 F1200 X101.16 Y111.908 E409.7816
G0 F6000 X101.16 Y111.342
G1 F1200 X185.656 Y195.838 E413.75603
G0 F6000 X186.222 Y195.838
G1 F1200 X101.16 Y110.776 E417.75708
G0 F6000 X101.16 Y110.211
G1 F1200 X186.787 Y195.838 E421.78472
G0 F6000 X187.353 Y195.838
G1 F1200 X101.16 Y109.645 E425.83897
G0 F6000 X101.16 Y109.079
G1 F1200 X187.919 Y195.838 E429.91985
G0 F6000 X188.484 Y195.838
G1 F1200 X101.16 Y108.514 E434.0273
G0 F6000 X101.16 Y107.948
G1 F1200 X189.05 Y195.838 E438.16138
G0 F6000 X189.616 Y195.838
G1 F1200 X101.16 Y107.382 E442.32208
G0 F6000 X101.16 Y106.816
G1 F1200 X190.182 Y195.838 E446.5094
